X:172
T:Dance,A. (p)1665.PLFD.172
M:6/4
L:1/4
Q:3/4=80
S:Playford, Dancing Master,2nd Supp. to 3rd Ed.,1665
O:England
H:166
Z:Chris Partington
K:D
d2AB2F|GEGF>ED|f2ge2a|b^g2a3|
efdc>de|BcdF>GA|dB2ge2|e2dd3:|
|:a>gfe>fg|f>edc3|defcde|B>A^GA2d|
Bcde2a|f>gab2a|gefB2c|d>ecd3:|
